build/img/benefits/vectors/medico.svg

<svg width="30" height="30" viewBox="0 0 30 30" fill="none" xmlns="http://www.w3.org/2000/svg">
<path fill-rule="evenodd" clip-rule="evenodd" d="M0 15C0 6.30151 6.30151 0 15 0C23.6985 0 30 6.30151 30 15C30 23.6985 23.6985 30 15 30C6.30151 30 0 23.6985 0 15ZM12.1875 10.3125C12.1875 9.43886 12.1875 9.00204 12.3302 8.65747C12.5205 8.19804 12.8855 7.83303 13.345 7.64273C13.6895 7.5 14.1264 7.5 15 7.5C15.8736 7.5 16.3105 7.5 16.655 7.64273C17.1145 7.83303 17.4795 8.19804 17.6698 8.65747C17.8125 9.00204 17.8125 9.43886 17.8125 10.3125V12.0975C17.8125 12.1399 17.8125 12.1611 17.8257 12.1743C17.8389 12.1875 17.8601 12.1875 17.9025 12.1875H19.6875C20.5611 12.1875 20.998 12.1875 21.3425 12.3302C21.802 12.5205 22.167 12.8855 22.3573 13.345C22.5 13.6895 22.5 14.1264 22.5 15C22.5 15.8736 22.5 16.3105 22.3573 16.655C22.167 17.1145 21.802 17.4795 21.3425 17.6698C20.998 17.8125 20.5611 17.8125 19.6875 17.8125H17.9025C17.8601 17.8125 17.8389 17.8125 17.8257 17.8257C17.8125 17.8389 17.8125 17.8601 17.8125 17.9025V19.6875C17.8125 20.5611 17.8125 20.998 17.6698 21.3425C17.4795 21.802 17.1145 22.167 16.655 22.3573C16.3105 22.5 15.8736 22.5 15 22.5C14.1264 22.5 13.6895 22.5 13.345 22.3573C12.8855 22.167 12.5205 21.802 12.3302 21.3425C12.1875 20.998 12.1875 20.5611 12.1875 19.6875V17.9025C12.1875 17.8601 12.1875 17.8389 12.1743 17.8257C12.1611 17.8125 12.1399 17.8125 12.0975 17.8125H10.3125C9.43886 17.8125 9.00204 17.8125 8.65747 17.6698C8.19804 17.4795 7.83303 17.1145 7.64273 16.655C7.5 16.3105 7.5 15.8736 7.5 15C7.5 14.1264 7.5 13.6895 7.64273 13.345C7.83303 12.8855 8.19804 12.5205 8.65747 12.3302C9.00204 12.1875 9.43886 12.1875 10.3125 12.1875H12.0975C12.1399 12.1875 12.1611 12.1875 12.1743 12.1743C12.1875 12.1611 12.1875 12.1399 12.1875 12.0975V10.3125Z" fill="#B0CB1F"/>
</svg>

<svg width="30" height="30" fill="none" xmlns="http://www.w3.org/2000/svg"><path fill-rule="evenodd" clip-rule="evenodd" d="M0 15C0 6.302 6.302 0 15 0s15 6.302 15 15-6.302 15-15 15S0 23.698 0 15Zm12.188-4.688c0-.873 0-1.31.142-1.655.19-.459.556-.824 1.015-1.014C13.69 7.5 14.126 7.5 15 7.5s1.31 0 1.655.143c.46.19.825.555 1.015 1.014.142.345.142.782.142 1.655v1.786c0 .042 0 .063.014.076.013.014.034.014.076.014h1.785c.874 0 1.311 0 1.655.142.46.19.825.556 1.015 1.015.143.345.143.781.143 1.655s0 1.31-.143 1.655c-.19.46-.555.825-1.014 1.015-.345.142-.782.142-1.655.142h-1.785c-.043 0-.064 0-.077.014-.014.013-.014.034-.014.076v1.785c0 .874 0 1.311-.142 1.655-.19.46-.556.825-1.015 1.015-.345.143-.781.143-1.655.143s-1.31 0-1.655-.143a1.875 1.875 0 0 1-1.015-1.014c-.143-.345-.143-.782-.143-1.655v-1.785c0-.043 0-.064-.013-.077-.013-.014-.034-.014-.076-.014h-1.786c-.873 0-1.31 0-1.655-.142a1.875 1.875 0 0 1-1.014-1.015C7.5 16.31 7.5 15.874 7.5 15s0-1.31.143-1.655c.19-.46.555-.825 1.014-1.015.345-.143.782-.143 1.655-.143h1.786c.042 0 .063 0 .076-.013.014-.013.014-.034.014-.076v-1.786Z" fill="#B0CB1F"/></svg>
